!!!COM:	de Orto, Marbrianus
!!!CDT:	~1460///-1529//
!!!OTL:	Lamentatio Jeremie prophete
!!!AGN:	Motet
!!!SCT:	Ort2005
!!!SCA:	Ort2005
!!!voices:	4
**kern	**kern	**kern	**kern
*staff4	*staff3	*staff2	*staff1
*Ivox	*Ivox	*Ivox	*Ivox
*I"Bassus	*I"Tenor	*I"Altus	*I"Superius
*I'B	*I'T	*I'A	*I'S
*>[A,B,C,D,E,F,G,H,I,J]	*>[A,B,C,D,E,F,G,H,I,J]	*>[A,B,C,D,E,F,G,H,I,J]	*>[A,B,C,D,E,F,G,H,I,J]
*>A	*>A	*>A	*>A
*clefF4	*clefGv2	*clefGv2	*clefGv2
*k[]	*k[]	*k[]	*k[]
*M2/1	*M2/1	*M2/1	*M2/1
*met(C|)	*met(C|)	*met(C|)	*met(C|)
!!section: Incipit Lamentatio Jeremie prophete
!!!OMD: Incipit Lamentatio Jeremie prophete
!!incipit: 5
=1-	=1-	=1-	=1-
[0AA	[0A	0A	0A
=2	=2	=2	=2
0AA]	0A]	0c	0e
=3	=3	=3	=3
[0D	[0A	[0d	[0f
=4	=4	=4	=4
1D]	1A]	1d]	1f]
1AA	1A	1c	1e
=5	=5	=5	=5
0AA;	0A;	0c;	0e;
=6	=6	=6	=6
1AA	1A	1c	1e
1AA	1A	1c	1e
=7	=7	=7	=7
[0C	[0G	[0c	[0e
=8	=8	=8	=8
1C]	1G]	1c]	1e]
1D	1F	1A	1f
=9	=9	=9	=9
0BB	0G	0D	0d
=10	=10	=10	=10
0AA;	0A;	0E;	0c;
=11	=11	=11	=11
1AA	1A	1E	1c
1AA	1A	1E	1c
=12	=12	=12	=12
[0AA	1A	0E	1.c
.	2G/	.	.
.	2F/	.	2d\
=13	=13	=13	=13
0AA]	0E	0C	2.e\
.	.	.	4d\
.	.	.	2c\
.	.	.	2B\
=14	=14	=14	=14
0FF;	0F;	0C;	0A;
=15	=15	=15	=15
0r	0r	0r	0r
=16	=16	=16	=16
0FF	0A	0F	1.c
.	.	.	2d\
=17	=17	=17	=17
0C	0G	1G	0e
.	.	1c	.
=18	=18	=18	=18
0D	0F	[0A	1f
.	.	.	2e\
.	.	.	2d\
=19	=19	=19	=19
0AA	0E	0A]	0c#i
=20	=20	=20	=20
[0Dl	[0Dl	1.F	[0dl
.	.	2G/	.
=21	=21	=21	=21
0D]	0D]	0Al	0d]
!!LO:LB:i:g=z
=22||	=22||	=22||	=22||
*>B	*>B	*>B	*>B
*clefF4	*clefGv2	*clefGv2	*clefGv2
*k[]	*k[]	*k[]	*k[]
*M2/1	*M2/1	*M2/1	*M2/1
*met(C|)	*met(C|)	*met(C|)	*met(C|)
!!section: Aleph
!!!OMD: Aleph
0AA	[0A	0c	0e
=23	=23	=23	=23
[0D	0A_	[0d	[0f
=24	=24	=24	=24
1D]	0A]	0d]	1f]
1C	.	.	1e
=25	=25	=25	=25
[0AA	1.A	0c	[0e
.	4G/	.	.
.	4F/	.	.
=26	=26	=26	=26
0AA]	[0E	[0A	1e]
.	.	.	1d
=27	=27	=27	=27
0AA	1E]	0A]	0c
.	1F	.	.
=28	=28	=28	=28
0GG;	0G;	0D;	0B;
=29	=29	=29	=29
0r	0r	0r	0r
=30	=30	=30	=30
[0GG	[0G	[0D	1.B
.	.	.	2c\
=31	=31	=31	=31
0GG]	0G_	0D]	[0d
=32	=32	=32	=32
1BB	0G]	1.D	1d]
1C	.	.	2c\
.	.	2E/	2B\
=33	=33	=33	=33
0D	1r	1F	0A
.	1F	[1D	.
=34	=34	=34	=34
1BB	1G	1D]	1B
1AA	1A	1E	1c
=35	=35	=35	=35
1GG	1B-	1G	1d
[1E	[1G	1r	[1B
=36	=36	=36	=36
1E]	1G]	1r	1B]
1AA	1A	1E	1A
=37	=37	=37	=37
0AAl	0Al	0El	0Al
!!LO:LB:i:g=z
=38||	=38||	=38||	=38||
*>C	*>C	*>C	*>C
*clefF4	*clefGv2	*clefGv2	*clefGv2
*k[]	*k[]	*k[]	*k[]
*M2/1	*M2/1	*M2/1	*M2/1
*met(C|)	*met(C|)	*met(C|)	*met(C|)
!!section: Quomodo sedet sola civitas
!!!OMD: Quomodo sedet sola civitas
[0AA	[0A	[0E	0A
=39	=39	=39	=39
0AA]	0A]	0E]	0c
=40	=40	=40	=40
1D	1F	1F	1d
1C	1G	1E	[1e
=41	=41	=41	=41
[0AA	1.A	1E	2e\]
.	.	.	2d\
.	.	2F/	2c\
.	4G/	2G/	2B\
.	4F/	.	.
=42	=42	=42	=42
0AA]	0E	0A	0c
=43	=43	=43	=43
0A	0D	0F	0d
=44	=44	=44	=44
0F	0D	0A	0d
=45	=45	=45	=45
0D	0F	0A	0d
=46	=46	=46	=46
1BB-	1F	1B-	1d
1BB-i	1F	1B-i	1d
=47	=47	=47	=47
1BB-i	1F	1B-i	1d
1BB-i	1F	1B-	1d
=48	=48	=48	=48
0GG;	0G;	0B-i;	0d;
=49	=49	=49	=49
0r	0r	0r	0r
=50	=50	=50	=50
0GG	0G	0B-i	0d
=51	=51	=51	=51
[0AA	[0E	[0A	[0c
=52	=52	=52	=52
0AA]	0E]	0A]	1c]
.	.	.	1B
=53	=53	=53	=53
0FF	0F	[0c	0A
=54	=54	=54	=54
0C	0E	0c]	0G
=55	=55	=55	=55
0AA	0C	1r	1c
.	.	1F	2B\
.	.	.	2A/
=56	=56	=56	=56
0GG	0D	0G	0B
=57	=57	=57	=57
0G	[0C	0E	[0c
=58	=58	=58	=58
0E;	0C;]	0G;	0c;]
=59	=59	=59	=59
0r	0r	0r	0r
=60	=60	=60	=60
[0G	[0C	[0c	[0e
=61	=61	=61	=61
1G]	1C]	1c]	1e]
1G	1C	1c	1e
=62	=62	=62	=62
0C	0G	0c	0e
=63	=63	=63	=63
1AA	1A	1c	1e
1AA	1A	1c	1e
=64	=64	=64	=64
1AA	1A	1c	1e
1AA	1A	1c	1e
=65	=65	=65	=65
0AA	0A	0c	0e
=66	=66	=66	=66
[0D	1A	[0d	[0f
.	1A	.	.
=67	=67	=67	=67
1D]	[0A	1d]	1f]
1AA	.	1c	1e
=68	=68	=68	=68
0AA	0A]	0c	0e
=69	=69	=69	=69
0D	0F	[0A	[0d
=70	=70	=70	=70
0r	1D	1A]	1d]
.	1E	1G	1c
=71	=71	=71	=71
1D	0F	0A	0d
1D	.	.	.
=72	=72	=72	=72
0AA;	0E;	0A;	0e;
=73	=73	=73	=73
0r	0r	0r	0r
=74	=74	=74	=74
0AA	0E	0A	0c
=75	=75	=75	=75
[0BB	[0D	[0F	[0d
=76	=76	=76	=76
0BB]	0D]	0F]	1d]
.	.	.	2c\
.	.	.	2d\
=77	=77	=77	=77
0C	1C	1E	0e
.	[1E	1G	.
=78	=78	=78	=78
0AA	1E]	0A	0c
.	1F	.	.
=79	=79	=79	=79
0GG	0G	0B	0r
=80	=80	=80	=80
0AA	0E	0A	0c
=81	=81	=81	=81
1FF	0F	1A	1c
1FF	.	1A	1c
=82	=82	=82	=82
0GG	1D	0G	0B
.	1E	.	.
=83	=83	=83	=83
0FF;	0F;	0C;	0A;
=84	=84	=84	=84
0r	0r	0r	0r
=85	=85	=85	=85
0AA	0F	0C	0A
=86	=86	=86	=86
[0GG	[0G	[0D	[0B
=87	=87	=87	=87
0GG]	0G]	0D]	1B]
.	.	.	2A/
.	.	.	2B\
=88	=88	=88	=88
0AA;	0E;	1r	0c;
.	.	1A;	.
=89	=89	=89	=89
0r	0r	0r	0r
=90	=90	=90	=90
0AA	0E	0A	0c
=91	=91	=91	=91
1D	1F	1B	1d
[1C	[1G	[1c	[1e
=92	=92	=92	=92
1C]	1G]	1c]	1e]
1D	1F	1A	1d
=93	=93	=93	=93
0AA	0E	0A	0c#i
=94	=94	=94	=94
[0Dl	[0Dl	1.F	[0dl
.	.	2G/	.
=95	=95	=95	=95
0D]	0D]	0Al	0d]
!!LO:LB:i:g=z
=96||	=96||	=96||	=96||
*>D	*>D	*>D	*>D
*clefF4	*clefGv2	*clefGv2	*clefGv2
*k[]	*k[]	*k[]	*k[]
*M2/1	*M2/1	*M2/1	*M2/1
*met(C|)	*met(C|)	*met(C|)	*met(C|)
!!section: Beth
!!!OMD: Beth
!	!	!	!LO:TX:X=40:Z=28:t=Beth ut supra (=music of Aleph)
0AA	[0A	0c	0e
=97	=97	=97	=97
[0D	0A_	[0d	[0f
=98	=98	=98	=98
1D]	0A]	0d]	1f]
1C	.	.	1e
=99	=99	=99	=99
[0AA	1.A	0c	[0e
.	4G/	.	.
.	4F/	.	.
=100	=100	=100	=100
0AA]	[0E	[0A	1e]
.	.	.	1d
=101	=101	=101	=101
0AA	1E]	0A]	0c
.	1F	.	.
=102	=102	=102	=102
0GG;	0G;	0D;	0B;
=103	=103	=103	=103
0r	0r	0r	0r
=104	=104	=104	=104
[0GG	[0G	[0D	1.B
.	.	.	2c\
=105	=105	=105	=105
0GG]	0G_	0D]	[0d
=106	=106	=106	=106
1BB	0G]	1.D	1d]
1C	.	.	2c\
.	.	2E/	2B\
=107	=107	=107	=107
0D	1r	1F	0A
.	1F	[1D	.
=108	=108	=108	=108
1BB	1G	1D]	1B
1AA	1A	1E	1c
=109	=109	=109	=109
1GG	1B-	1G	1d
[1E	[1G	1r	[1B
=110	=110	=110	=110
1E]	1G]	1r	1B]
1AA	1A	1E	1A
=111	=111	=111	=111
0AAl	0Al	0El	0Al
!!LO:LB:i:g=z
=112||	=112||	=112||	=112||
*>E	*>E	*>E	*>E
*clefF4	*clefGv2	*clefGv2	*clefGv2
*k[]	*k[]	*k[]	*k[]
*M2/1	*M2/1	*M2/1	*M2/1
*met(C|)	*met(C|)	*met(C|)	*met(C|)
!!section: Plorans ploravit
!!!OMD: Plorans ploravit
[0AA	[0A	[0E	[0A
=113	=113	=113	=113
0AA]	1A]	1E]	1A]
.	2G/	2F/	1B
.	2F/	2G/	.
=114	=114	=114	=114
0AA	0E	0A	0c
=115	=115	=115	=115
0A	0D	0F	0d
=116	=116	=116	=116
1r	1r	1r	1r
1D	1F	1A	1d
=117	=117	=117	=117
0BB-	0F	0B-	0d
=118	=118	=118	=118
1BB-i	1F	1B-i	1d
1BB-i	1D	1B-i	1d
=119	=119	=119	=119
0BB-i	0F	0B-i	0d
=120	=120	=120	=120
1C	1E	1G	1c
1AA	1C	1F	[1c
=121	=121	=121	=121
0GG	0D	0G	1c]
.	.	.	1B
=122	=122	=122	=122
0G	[0C	0E	[0c
=123	=123	=123	=123
0E;	0C;]	0G;	0c;]
=124	=124	=124	=124
0r	0r	0r	0r
=125	=125	=125	=125
0C	0E	0G	0c
=126	=126	=126	=126
1FF	1F	1A	1c
1FF	1F	1A	1c
=127	=127	=127	=127
[0FF	1.F	0A	0c
.	2E/	.	.
=128	=128	=128	=128
0FF]	1C	2.c\	1r
.	.	4B\	.
.	1D	1A	1c
=129	=129	=129	=129
0GG	0E	0G	0B
=130	=130	=130	=130
0FF;	0F;	0C;	0A;
=131	=131	=131	=131
0r	0r	0r	0r
=132	=132	=132	=132
1FF	1F	1c	1A
1FF	1F	1c	1A
=133	=133	=133	=133
[0FF	[0F	[0A	[0c
=134	=134	=134	=134
0FF]	0F]	0A]	1c]
.	.	.	1B
=135	=135	=135	=135
0FF	0F	[0c	0A
=136	=136	=136	=136
0C	0E	1c]	0G
.	.	1G	.
=137	=137	=137	=137
0AA	0C	1A	1c
.	.	1F	2B\
.	.	.	2A/
=138	=138	=138	=138
0GG	0D	0G	0B
=139	=139	=139	=139
0G	[0C	0E	[0c
=140	=140	=140	=140
0E;	0C;]	0G;	0c;]
=141	=141	=141	=141
0r	0r	0r	0r
=142	=142	=142	=142
0F	0F	0A	0c
=143	=143	=143	=143
1BB-	1F	1B-	1d
1BB-i	1F	1B-i	1d
=144	=144	=144	=144
1BB-i	1F	1B-i	1d
1BB-i	1D	1B-i	1d
=145	=145	=145	=145
0BB-i	0F	1B-i	1.d
.	.	2A/	.
.	.	2G/	2c\
=146	=146	=146	=146
1.D	1F	1F	0A
.	1G	1D	.
2C/	.	.	.
=147	=147	=147	=147
0AA	1A	0E	1c
.	2G/	.	2B\
.	2F/	.	2A/
=148	=148	=148	=148
0E	0G	1r	0B
.	.	1E	.
=149	=149	=149	=149
0AA;	0A;	0E;	0A;
=150	=150	=150	=150
0r	0r	0r	0r
=151	=151	=151	=151
0AA	0A	0E	0c
=152	=152	=152	=152
1BB-i	1G	1D	1d
1AA	1A	1E	1c
=153	=153	=153	=153
0FF	0A	0F	0c
=154	=154	=154	=154
0C	0G	1r	0e
.	.	1c	.
=155	=155	=155	=155
1D	1F	1B	1d
[1C	[1G	[1c	[1e
=156	=156	=156	=156
1C]	1G]	1c]	1e]
1BB	1D	1G	[1d
=157	=157	=157	=157
0AA	0E	0A	1d]
.	.	.	1c#i
=158	=158	=158	=158
[0Dl	[0Dl	1.F	[0dl
.	.	2G/	.
=159	=159	=159	=159
0D]	0D]	0Al	0d]
!!LO:LB:i:g=z
=160||	=160||	=160||	=160||
*>F	*>F	*>F	*>F
*clefF4	*clefGv2	*clefGv2	*clefGv2
*k[]	*k[]	*k[]	*k[]
*M2/1	*M2/1	*M2/1	*M2/1
*met(C|)	*met(C|)	*met(C|)	*met(C|)
!!section: Omnes amici ejus
!!!OMD: Omnes amici ejus
[0D	[0F	0A	[0d
=161	=161	=161	=161
0D]	0F]	1.A	0d]
.	.	4G/	.
.	.	4F/	.
=162	=162	=162	=162
1C	1G	1E	1e
1C	1G	1C	1e
=163	=163	=163	=163
1BB	1G	1D	1d
1BB	1G	1D	1d
=164	=164	=164	=164
0AA	0A	0E	0c
=165	=165	=165	=165
0AA	0A	0E	0c
=166	=166	=166	=166
1BB	1G	1D	0r
1AA	1A	1E	.
=167	=167	=167	=167
0GG	0B-	0G	0d
=168	=168	=168	=168
0AA	1A	1E	1c
.	2G/	1C	1e
.	2F/	.	.
=169	=169	=169	=169
0BB-i	0G	0D	0d
=170	=170	=170	=170
[0AA	0A	[0E	1c
.	.	.	[1e
=171	=171	=171	=171
0AA]	1.A	0E]	2e\]
.	.	.	2d\
.	.	.	2c\
.	2B\	.	2B\
=172	=172	=172	=172
0FF;	0c;	0F;	0A;
=173	=173	=173	=173
1r	1r	1r	1r
1FF	1F	1c	1A
=174	=174	=174	=174
1FF	1F	1c	1A
1FF	1F	2B\	1A
.	.	2A/	.
=175	=175	=175	=175
0GG	0D	0G	0B
=176	=176	=176	=176
0AA	0C	1.E	0c
.	.	2F/	.
=177	=177	=177	=177
0GG	1D	0G	0B
.	1D	.	.
=178	=178	=178	=178
1r	1G	1B-	1r
[1AA	1E	1A	1c
=179	=179	=179	=179
2AA/]	1D	1F	1d
2BB/	.	.	.
[1C	[1G	[1c	[1e
=180	=180	=180	=180
1C]	1G]	1c]	1e]
1D	1F	1A	[1d
=181	=181	=181	=181
0AA	0E	0A	1d]
.	.	.	1c#i
=182	=182	=182	=182
[0Dl	[0Dl	1.F	[0dl
.	.	2G/	.
=183	=183	=183	=183
0D]	0D]	0Al	0d]
!!LO:LB:i:g=z
=184||	=184||	=184||	=184||
*>G	*>G	*>G	*>G
*clefF4	*clefGv2	*clefGv2	*clefGv2
*k[]	*k[]	*k[]	*k[]
*M2/1	*M2/1	*M2/1	*M2/1
*met(C|)	*met(C|)	*met(C|)	*met(C|)
!!section: Ghimel
!!!OMD: Ghimel
!	!	!	!LO:TX:X=-40:Z=8:t=Ghimel ut supra
0AA	[0A	0c	0e
=185	=185	=185	=185
[0D	0A_	[0d	[0f
=186	=186	=186	=186
1D]	0A]	0d]	1f]
1C	.	.	1e
=187	=187	=187	=187
[0AA	1.A	0c	[0e
.	4G/	.	.
.	4F/	.	.
=188	=188	=188	=188
0AA]	[0E	[0A	1e]
.	.	.	1d
=189	=189	=189	=189
0AA	1E]	0A]	0c
.	1F	.	.
=190	=190	=190	=190
0GG;	0G;	0D;	0B;
=191	=191	=191	=191
0r	0r	0r	0r
=192	=192	=192	=192
[0GG	[0G	[0D	1.B
.	.	.	2c\
=193	=193	=193	=193
0GG]	0G_	0D]	[0d
=194	=194	=194	=194
1BB	0G]	1.D	1d]
1C	.	.	2c\
.	.	2E/	2B\
=195	=195	=195	=195
0D	1r	1F	0A
.	1F	[1D	.
=196	=196	=196	=196
1BB	1G	1D]	1B
1AA	1A	1E	1c
=197	=197	=197	=197
1GG	1B-	1G	1d
[1E	[1G	1r	[1B
=198	=198	=198	=198
1E]	1G]	1r	1B]
1AA	1A	1E	1A
=199	=199	=199	=199
0AAl	0Al	0El	0Al
!!LO:LB:i:g=z
=200||	=200||	=200||	=200||
*>H	*>H	*>H	*>H
*clefF4	*clefGv2	*clefGv2	*clefGv2
*k[]	*k[]	*k[]	*k[]
*M2/1	*M2/1	*M2/1	*M2/1
*met(C|)	*met(C|)	*met(C|)	*met(C|)
!!section: Migravit Judas
!!!OMD: Migravit Judas
[0AA	[0A	[0E	0A
=201	=201	=201	=201
0AA]	0A]	0E]	0c
=202	=202	=202	=202
1D	1F	1F	1d
1C	1G	1E	[1e
=203	=203	=203	=203
[0AA	1.A	1E	2e\]
.	.	.	2d\
.	.	2F/	2c\
.	4G/	2G/	2B\
.	4F/	.	.
=204	=204	=204	=204
0AA]	0E	0A	0c
=205	=205	=205	=205
0A	0D	0F	0d
=206	=206	=206	=206
0F	0D	1.A	0r
.	.	4B\	.
.	.	4c\	.
=207	=207	=207	=207
0D	0A	0d	0f
=208	=208	=208	=208
1D	1A	1d	1f
1D	1A	1d	1f
=209	=209	=209	=209
1D	1A	1d	1f
1D	1A	1d	1f
=210	=210	=210	=210
1D	0A	0d	0f
1F	.	.	.
=211	=211	=211	=211
0C;	0G;	0c;	0e;
=212	=212	=212	=212
0r	0r	0r	0r
=213	=213	=213	=213
0G	0C	0c	0e
=214	=214	=214	=214
0C	1G	1c	1e
.	1G	1c	1e
=215	=215	=215	=215
0AA	1A	1c	1e
.	1A	1c	1e
=216	=216	=216	=216
1AA	0A	[0c	0e
1AA	.	.	.
=217	=217	=217	=217
0AA	[0A	0c]	[0f
=218	=218	=218	=218
[0D	1A]	[0d	1f]
.	1A	.	1e
=219	=219	=219	=219
1D]	0A	1d]	0e
1AA	.	1c	.
=220	=220	=220	=220
0AA	0F	0c	[0d
=221	=221	=221	=221
0r	1D	[0A	1d]
.	1E	.	1c
=222	=222	=222	=222
0D	0F	1A]	0d
.	.	1G	.
=223	=223	=223	=223
0AA	0E	0A	0e
=224	=224	=224	=224
0AA;	0E;	0A;	0c;
=225	=225	=225	=225
0r	0r	0r	0r
=226	=226	=226	=226
0F	0F	0A	0c
=227	=227	=227	=227
1BB-	1F	1B-	1d
1BB-i	1F	1B-i	1d
=228	=228	=228	=228
1BB-i	1F	1B-i	1d
1BB-i	1D	1B-i	1d
=229	=229	=229	=229
0BB-i	0F	1B-i	1.d
.	.	2A/	.
.	.	2G/	2c\
=230	=230	=230	=230
1.D	0F	1F	0A
.	.	1D	.
2C/	.	.	.
=231	=231	=231	=231
0AA	1A	0E	1c
.	2G/	.	2B\
.	2F/	.	2A/
=232	=232	=232	=232
0E	0G	1r	0B
.	.	1E	.
=233	=233	=233	=233
0AA;	0A;	0E;	0A;
=234	=234	=234	=234
0r	0r	0r	0r
=235	=235	=235	=235
0AA	0A	0E	0c
=236	=236	=236	=236
1BB-i	1G	1D	1d
1AA	1A	1E	1c
=237	=237	=237	=237
0FF	0A	0F	0c
=238	=238	=238	=238
0C	0G	1r	0e
.	.	1c	.
=239	=239	=239	=239
1D	1F	1B	1d
[1C	[1G	[1c	[1e
=240	=240	=240	=240
1C]	1G]	1c]	1e]
1BB	1D	1G	[1d
=241	=241	=241	=241
0AA	0E	0A	1d]
.	.	.	1c#i
=242	=242	=242	=242
[0Dl	[0Dl	1.F	[0dl
.	.	2G/	.
=243	=243	=243	=243
0D]	0D]	0Al	0d]
!!LO:LB:i:g=z
=244||	=244||	=244||	=244||
*>I	*>I	*>I	*>I
*clefF4	*clefGv2	*clefGv2	*clefGv2
*k[]	*k[]	*k[]	*k[]
*M2/1	*M2/1	*M2/1	*M2/1
*met(C|)	*met(C|)	*met(C|)	*met(C|)
!!section: Omnes persecutores ejus
!!!OMD: Omnes persecutores ejus
0D	0F	0A	0d
=245	=245	=245	=245
1D	1F	1A	1d
1D	1F	2A/	1d
.	.	4G/	.
.	.	4F/	.
=246	=246	=246	=246
1C	1G	1E	1e
1C	1G	1C	1e
=247	=247	=247	=247
1BB	1G	1D	1d
1BB	1G	1D	1d
=248	=248	=248	=248
0AA	0A	0E	0c
=249	=249	=249	=249
0AA	0A	0E	0c
=250	=250	=250	=250
1BB-i	1G	1D	0r
1AA	1A	1E	.
=251	=251	=251	=251
0GG	0B-i	0G	1d
.	.	.	1d
=252	=252	=252	=252
0AA	1A	1E	1c
.	2G/	1C	1e
.	2F/	.	.
=253	=253	=253	=253
0BB-i	0G	0D	0d
=254	=254	=254	=254
[0AA	0A	[0E	1c
.	.	.	[1e
=255	=255	=255	=255
0AA]	1.A	0E]	2e\]
.	.	.	2d\
.	.	.	2c\
.	2B\	.	2B\
=256	=256	=256	=256
0FF;	0c;	0F;	0A;
=257	=257	=257	=257
0r	0r	0r	0r
=258	=258	=258	=258
0FF	0F	1c	0A
.	.	2B\	.
.	.	2A/	.
=259	=259	=259	=259
0GG	0D	0G	0B
=260	=260	=260	=260
0AA	0C	1.E	0c
.	.	2F/	.
=261	=261	=261	=261
0GG	0D	0G	0B
=262	=262	=262	=262
1r	1G	1B-	1r
[1AA	1E	1A	1c
=263	=263	=263	=263
2AA/]	1D	1F	1d
2BB/	.	.	.
[1C	[1G	[1c	[1e
=264	=264	=264	=264
1C]	1G]	1c]	1e]
1D	1F	1A	[1d
=265	=265	=265	=265
0AA	0E	0A	1d]
.	.	.	1c#i
=266	=266	=266	=266
[0Dl	[0Dl	1.F	[0dl
.	.	2G/	.
=267	=267	=267	=267
0D]	0D]	0Al	0d]
!!LO:LB:i:g=z
=268||	=268||	=268||	=268||
*>J	*>J	*>J	*>J
*clefF4	*clefGv2	*clefGv2	*clefGv2
*k[]	*k[]	*k[]	*k[]
*M2/1	*M2/1	*M2/1	*M2/1
*met(C|)	*met(C|)	*met(C|)	*met(C|)
!!section: Jerusalem, Jerusalem
!!!OMD: Jerusalem, Jerusalem
0AA	[0A	0c	0e
=269	=269	=269	=269
[0D	0A]	[0d	[0f
=270	=270	=270	=270
1D]	[0A	0d]	1f]
1C	.	.	1e
=271	=271	=271	=271
0AA	0A]	0c	[0e
=272	=272	=272	=272
[0AA	[0E	[0A	1e]
.	.	.	1d
=273	=273	=273	=273
0AA]	1E]	0A]	0c
.	1F	.	.
=274	=274	=274	=274
0GG;	0G;	0D;	0B;
=275	=275	=275	=275
0r	0r	0r	0r
=276	=276	=276	=276
[0GG	0G	[0D	1.B
.	.	.	2c\
=277	=277	=277	=277
0GG]	[0G	0D]	[0d
=278	=278	=278	=278
1BB	0G]	1.D	1d]
1C	.	.	2c\
.	.	2E/	2B\
=279	=279	=279	=279
0D	1r	1F	0A
.	1F	[1D	.
=280	=280	=280	=280
1BB	1G	1D]	1B
1AA	1A	1E	1c
=281	=281	=281	=281
1GG	1B-i	1G	1d
[1E	[1G	1r	[1B
=282	=282	=282	=282
1E]	1G]	1r	1B]
1AA	1A	1E	1A
=283	=283	=283	=283
00AA;	00A;	00E;	00A;
=284	=284	=284	=284
0AA	0A	0c	0e
=285	=285	=285	=285
[0C	[0G	[0c	[0e
=286	=286	=286	=286
1C]	1G]	1c]	1e]
1D	1F	1A	1f
=287	=287	=287	=287
0BB	0G	0D	0d
=288	=288	=288	=288
0AA;	0A;	0E;	0c;
=289	=289	=289	=289
0r	0r	0r	0r
=290	=290	=290	=290
0AA	0A	0E	0c
=291	=291	=291	=291
0AA	1A	0E	1.c
.	2G/	.	.
.	2F/	.	2d\
=292	=292	=292	=292
0AA	0E	0C	2.e\
.	.	.	4d\
.	.	.	2c\
.	.	.	2B\
=293	=293	=293	=293
0FF;	0F;	0C;	0A;
=294	=294	=294	=294
0r	0r	0r	0r
=295	=295	=295	=295
0FF	0A	0F	1.c
.	.	.	2d\
=296	=296	=296	=296
0C	0G	1G	0e
.	.	1c	.
=297	=297	=297	=297
0D	0F	[0A	1f
.	.	.	2e\
.	.	.	2d\
=298	=298	=298	=298
0AA	0E	0A]	0c#i
=299	=299	=299	=299
[0Dl	[0Dl	1.F	[0dl
.	.	2G/	.
=300	=300	=300	=300
0D]	0D]	0Al	0d]
==	==	==	==
*-	*-	*-	*-
!!!RDF**kern: l=long note in original notation
!!!RDF**kern: i=editorial accidental
!!!ENC:	Jesse Rodin 8/6/2013
!!!END:	2013/08/06/
!!!EED:	Jesse Rodin
!!!EEV:	2013/08/07/
!!!ONB:	Translated from MusicXML and edited on 2013/08/07/ by Craig Sapp
!!muse2ps: C^@{COM}^i2I150v85,85,85,100c190
